!!!COM:	Bach, Johann Sebastian
!!!CDT:	1685/02/21/-1750/07/28/
!!!OTL@@DE:	Was Gott tut, das ist wohlgetan
!!!SCT:	BWV 144/3
!!!PC#:	65
!!!AGN:	chorale
**harm	**kern	**kern	**kern	**kern
*	*ICvox	*ICvox	*ICvox	*ICvox
*	*Ibass	*Itenor	*Ialto	*Isoprn
*	*I"Bass	*I"Tenor	*I"Alto	*I"Soprano
*>[A,A,B]	*>[A,A,B]	*>[A,A,B]	*>[A,A,B]	*>[A,A,B]
*>norep[A,B]	*>norep[A,B]	*>norep[A,B]	*>norep[A,B]	*>norep[A,B]
*>A	*>A	*>A	*>A	*>A
*	*	*oclefC4	*oclefC3	*oclefC1
*	*clefF4	*clefGv2	*clefG2	*clefG2
*k[f#]	*k[f#]	*k[f#]	*k[f#]	*k[f#]
*G:	*G:	*G:	*G:	*G:
*M4/4	*M4/4	*M4/4	*M4/4	*M4/4
*met(c)	*met(c)	*met(c)	*met(c)	*met(c)
*MM100	*MM100	*MM100	*MM100	*MM100
I	4GG	4G	4B	4d
=1	=1	=1	=1	=1
I	4G	4B	4d	4g
V6	4F#	4A	4d	4a
I	4G	4G	4d	4b
IV	8CL	8GL	8eL	8eeL
vii%43	8CJ	8AJ	8f#J	8eeJ
=2	=2	=2	=2	=2
I6	4BB	4B	4g	4dd
V7	4D	4A	4f#	4cc
I;	4GG;	4d;	4g;	4b;
IV	4C	4c	4g	4ee
=3	=3	=3	=3	=3
V	4D	4A	4f#	4dd
IV6	8EL	8eL	8gL	8ccL
vii%7	8F#J	8eJ	8aJ	8ccJ
I	4G	4d	4b	4b
IV6	4E	4e	4g	4cc
=4	==4	=4	=4	=4
ii65	4C	4e	4g	4a
V7	4D	4c	4f#	4a
I;	4GG;	4B;	4d;	4g;
*>B	*>B	*>B	*>B	*>B
I	4G	4B	4g	4dd
=5	=5	=5	=5	=5
IV	4C	4c	4g	4ee
D:V65	4C#	4A	4g	4ee
I;	4D;	4d;	4f#;	4a;
I	4D	4d	4f#	4a
=6	=6	=6	=6	=6
I6	4F#	4A	4a	4dd
vi	4BB	4B	4f#	4dd
ii;	4E;	4B;	4e;	4g;
ii	4E	4G	4e	4b
=7	=7	=7	=7	=7
V6	4C#	4A	4e	4a
V7	4AA	4A	4c#	4g
I	4D	4A	4d	4f#
IV6	4BB	4G	4d	4g
=8	=8	=8	=8	=8
ii65	4GG	4B	4d	4e
V7	4AA	4G	4c#	4e
I;	4D;	4F#;	4d;	4d;
G:I6	4BB	4G	4g	4dd
=9	=9	=9	=9	=9
IV6	8EL	8GL	8eL	8ccnXL
vii%7	8F#J	8AJ	8eJ	8ccJ
I	4G	4B	4d	4b
V	8DL	8dL	8f#L	8aL
V2	8CJ	8dJ	8f#J	8aJ
I6	4BB	4d	4g	4b
=10	=10	=10	=10	=10
V(54)	4D	4d	4g	4a
V7	4D	4c	4f#	4a
I;	4GG;	4B;	4d;	4g;
==	==	==	==	==
*-	*-	*-	*-	*-
!!!YOR1: 371 vierstimmige Choralges&auml;nge von Johann Sebastian Bach, 
!!!YOR2: 4th ed. by Alfred D&ouml;rffel (Leipzig: Breitkopf und H&auml;rtel, 
!!!YOR2: c.1875). 178 pp. Plate "V.A.10".  reprint: J.S. Bach, 371 Four-Part 
!!!YOR4: Chorales (New York: Associated Music Publishers, Inc., c.1940).
!!!SMS: B&H, 4th ed, Alfred D&ouml;rffel, c.1875, plate V.A.10
!!!EED:  Craig Stuart Sapp
!!!EEV:  2009/05/22
